!!!!SEGMENT: pl-cz--iii-203--001-002_engel-jan--sinfonia-in-b-andante-con-sordini.krn
!!!cenid: 17xx:883
!!!COM: Engel, Jan
!!!COM-rismID: pe30009138
!!!CDT: <1772->1788
!!!CNT:
!!!OPR: Sinfonia in B
!!!OTL: Andante con sordini
!!!OMV: 002
!!!PDT:
!!!AGN: Secular
!!!SMS-siglum: PL-CZ
!!!SMS-shelfmark: III-203
!!!SMS-shelfwork: 001-002 M
!!!SMS-variant:
!!!SMS-altvar:
!!!NIFC-rismSourceID: 300000298
!!!NIFC-islandoraID: pl-cz:36475
!!!URL-pdf-islandora: https://repozytorium.nifc.pl/islandora/object/pl-cz%3A36475/datastream/PDF/view
!!!URL-scan:
!!!ONB-nifc: UWAGA: części Sinfonii: Allegro, Andante con sordini, Allegretto
!!!AIN: 1 cello 2 cor 2 oboe 1 viola 2 violn
!!!key: E-
**kern	**dynam	**kern	**dynam	**kern	**dynam	**kern	**dynam	**kern	**dynam	**kern	**dynam	**kern	**dynam	**kern	**dynam
*part8	*part8	*part7	*part7	*part6	*part6	*part5	*part5	*part4	*part4	*part3	*part3	*part2	*part2	*part1	*part1
*staff8	*	*staff7	*	*staff6	*	*staff5	*	*staff4	*	*staff3	*	*staff2	*	*staff1	*
*I"Baſso	*	*I"Alto Viola obl	*	*I"Violino II	*	*I"Violino Primo.	*	*I"Cornu 2do in B.	*	*I"Cornu 1mo in B.	*	*I"Oboe Secondo	*	*I"Oboe Primo.	*
*Icello	*	*Iviola	*	*Ivioln	*	*Ivioln	*	*Icor	*	*Icor	*	*Ioboe	*	*Ioboe	*
*I'b	*	*I'a-vla	*	*I'Vn II	*	*I'vl 1	*	*I'cor 2 in B	*	*I'cor 1 in B	*	*I'ob 2	*	*I'ob 1	*
*ICstr	*	*ICstr	*	*ICstr	*	*ICstr	*	*ICbras	*	*ICbras	*	*ICww	*	*ICww	*
*clefF4	*	*clefC3	*	*clefG2	*	*clefG2	*	*clefG2	*	*clefG2	*	*clefG2	*	*clefG2	*
*ITrd0c0	*	*	*	*	*	*	*	*ITrd5c9	*	*ITrd5c9	*	*	*	*	*
*k[b-e-a-]	*	*k[b-e-a-]	*	*k[b-e-a-]	*	*k[b-e-a-]	*	*k[b-e-a-]	*	*k[b-e-a-]	*	*k[b-e-a-]	*	*k[b-e-a-]	*
*E-:	*	*E-:	*	*E-:	*	*E-:	*	*E-:	*	*E-:	*	*E-:	*	*E-:	*
*M3/4	*	*M3/4	*	*M3/4	*	*M3/4	*	*M3/4	*	*M3/4	*	*M3/4	*	*M3/4	*
*2\right	*	*2\right	*	*2\right	*	*2\right	*	*2\right	*	*2\right	*	*2\right	*	*2\right	*
!LO:TX:a:B:t=Andante con ſordini	!	!LO:TX:a:Bi:t=Andante	!	!LO:TX:a:Bi:t=Andante con ſordini	!	!LO:TX:a:B:t=Andante con ſordini	!	!	!	!	!	!LO:TX:a:Bi:t=Andante	!	!LO:TX:a:B:t=Andante	!
4r	.	4r	.	[4g/	.	4b-\	.	4r	.	4r	.	4r	.	4r	.
=1	=1	=1	=1	=1	=1	=1	=1	=1	=1	=1	=1	=1	=1	=1	=1
!	!	!	!	!	!LO:DY:b:t=po	!LO:TX:a:i:t=dolce	!LO:DY:b:t=pia&colon;	!	!	!LO:TX:a:t=22	!	!	!	!	!
2.r	.	2.r	.	4g/]	p	4b-\	p	2.r	.	2.r	.	2.r	.	2.r	.
.	.	.	.	8.e-/L	.	8.g/L	.	.	.	.	.	.	.	.	.
.	.	.	.	16f/K	.	16a-/K	.	.	.	.	.	.	.	.	.
.	.	.	.	8.g/	.	8.b-/	.	.	.	.	.	.	.	.	.
.	.	.	.	16a-/Jk	.	16cc/Jk	.	.	.	.	.	.	.	.	.
=2	=2	=2	=2	=2	=2	=2	=2	=2	=2	=2	=2	=2	=2	=2	=2
.	.	.	.	.	.	8qqb-/	.	.	.	.	.	.	.	.	.
4r	.	4r	.	4f/	.	(4a-/	.	2.r	.	2.r	.	2.r	.	2.r	.
!	!LO:DY:b:t=po.	!	!LO:DY:b:t=po	!	!	!	!	!	!	!	!	!	!	!	!
(4c\	p	4c/	p	4f/	.	4a-/)	.	.	.	.	.	.	.	.	.
4B-\)	.	4B-/	.	8r	.	8r	.	.	.	.	.	.	.	.	.
.	.	.	.	8e-/	.	8g/	.	.	.	.	.	.	.	.	.
=3	=3	=3	=3	=3	=3	=3	=3	=3	=3	=3	=3	=3	=3	=3	=3
4A-\	.	2A-/	.	4e-/	.	4f/	.	2.r	.	2.r	.	2.r	.	2.r	.
4AA-/	.	.	.	2c/	.	(4.f/	.	.	.	.	.	.	.	.	.
4AAn/	.	4An/	.	.	.	.	.	.	.	.	.	.	.	.	.
.	.	.	.	.	.	8e-/)	.	.	.	.	.	.	.	.	.
=4	=4	=4	=4	=4	=4	=4	=4	=4	=4	=4	=4	=4	=4	=4	=4
4BB-/	.	4B-/	.	(16B-/LL	.	(16d/LL	.	2.r	.	2.r	.	2.r	.	2.r	.
.	.	.	.	16d/)	.	16f/)	.	.	.	.	.	.	.	.	.
.	.	.	.	(16c/	.	(16e-/	.	.	.	.	.	.	.	.	.
.	.	.	.	16e-/JJ)	.	16g/JJ)	.	.	.	.	.	.	.	.	.
4BB-/	.	4B-/	.	8e-/	.	4g/	.	.	.	.	.	.	.	.	.
.	.	.	.	8d/	.	.	.	.	.	.	.	.	.	.	.
4BB-/	.	4B-/	.	4r	.	8.f/L	.	.	.	.	.	.	.	.	.
.	.	.	.	.	.	16b-/Jk	.	.	.	.	.	.	.	.	.
=5	=5	=5	=5	=5	=5	=5	=5	=5	=5	=5	=5	=5	=5	=5	=5
4E-\	.	4e-\	.	4g/	.	4b-/	.	2.r	.	2.r	.	4r	.	4r	.
!	!	!	!	!	!	!	!	!	!	!	!	!	!LO:DY:b:t=po.	!	!LO:DY:b:t=pia.
4r	.	4r	.	8.e-/L	.	8.g/L	.	.	.	.	.	8.ee-\L	p	(8.gg\L	p
.	.	.	.	16f/K	.	16a-/K	.	.	.	.	.	16ff\K	.	16aa-\K)	.
4r	.	4r	.	8.g/	.	8.b-/	.	.	.	.	.	8.gg\	.	(8.bb-\	.
.	.	.	.	16a-/Jk	.	16cc/Jk	.	.	.	.	.	16aa-\Jk	.	16ccc\Jk)	.
=6	=6	=6	=6	=6	=6	=6	=6	=6	=6	=6	=6	=6	=6	=6	=6
4r	.	4r	.	4f/	.	4a-/	.	2.r	.	2.r	.	4a-/	.	4ff\	.
4c\	.	(4c/	.	4.f/	.	4.a-/	.	.	.	.	.	4a-/	.	4.ff\	.
4B-\	.	4B-/)	.	.	.	.	.	.	.	.	.	8r	.	.	.
!	!	!	!	!	!	!	!LO:DY:b:t=for	!	!	!	!	!	!	!	!
.	.	.	.	8e-/	.	8g/	f	.	.	.	.	8ee-\	.	8gg\	.
=7	=7	=7	=7	=7	=7	=7	=7	=7	=7	=7	=7	=7	=7	=7	=7
.	.	.	.	.	.	.	.	.	.	.	.	.	.	8qqbb-/	.
4A-\	.	4A-/	.	8e-/L	.	(16g/LL	.	2.r	.	2.r	.	(4ff\	.	4aa-\	.
.	.	.	.	.	.	16f/)	.	.	.	.	.	.	.	.	.
.	.	.	.	16c/L	.	(16a-/	.	.	.	.	.	.	.	.	.
.	.	.	.	16A-/JJ	.	16f/JJ)	.	.	.	.	.	.	.	.	.
4B-\	.	4B-/	.	4G/	.	4e-/	.	.	.	.	.	4ee-\	.	4gg\	.
4BB-/	.	4B-/	.	4A-/	.	4d/	.	.	.	.	.	4dd\)	.	4ff\	.
=8	=8	=8	=8	=8	=8	=8	=8	=8	=8	=8	=8	=8	=8	=8	=8
4E-\	.	2B-/	.	4A-/	.	(4d/	.	2.r	.	2.r	.	(4dd\	.	(4ff\	.
4EE-/	.	.	.	4G/	.	4e-/)	.	.	.	.	.	4ee-\)	.	4ee-\)	.
4r	.	4r	.	4r	.	4r	.	.	.	.	.	4r	.	4r	.
!LO:LB:g=original	!	!LO:LB:g=original	!	!LO:LB:g=original	!	!	!	!	!	!	!	!LO:LB:g=original	!	!	!
=9	=9	=9	=9	=9	=9	=9	=9	=9	=9	=9	=9	=9	=9	=9	=9
!	!	!	!	!	!	!	!	!	!	!	!	!	!	!	!LO:DY:b:t=for
2.r	.	2.r	.	4r	.	4r	.	2.r	.	2.r	.	2.r	.	2.gg\	f
!	!	!	!	!	!	!	!LO:DY:b:t=po&colon;	!	!	!	!	!	!	!	!
.	.	.	.	8e-/L	.	8e-/L	p	.	.	.	.	.	.	.	.
.	.	.	.	8d/	.	8d/	.	.	.	.	.	.	.	.	.
.	.	.	.	8c/	.	8c/	.	.	.	.	.	.	.	.	.
.	.	.	.	8B-/J	.	8B-/J	.	.	.	.	.	.	.	.	.
!	!	!	!	!	!	!LO:LB:g=original	!	!	!	!	!	!	!	!	!
=10	=10	=10	=10	=10	=10	=10	=10	=10	=10	=10	=10	=10	=10	=10	=10
2.r	.	2.r	.	4An/	.	2.An/	.	2.r	.	2.r	.	2.r	.	(4gg\	.
.	.	.	.	16c/LL	.	.	.	.	.	.	.	.	.	4ff\	.
.	.	.	.	(16B-/	.	.	.	.	.	.	.	.	.	.	.
.	.	.	.	16c/	.	.	.	.	.	.	.	.	.	.	.
.	.	.	.	16d/JJ)	.	.	.	.	.	.	.	.	.	.	.
.	.	.	.	4c/	.	.	.	.	.	.	.	.	.	4ee-\)	.
!	!	!	!	!	!	!	!	!	!	!	!	!	!	!LO:LB:g=original	!
=11	=11	=11	=11	=11	=11	=11	=11	=11	=11	=11	=11	=11	=11	=11	=11
2.r	.	2.r	.	2.f/	.	4f/	.	2.r	.	2.r	.	2.r	.	(8ee-\L	.
.	.	.	.	.	.	.	.	.	.	.	.	.	.	8dd\J)	.
.	.	.	.	.	.	4e-/	.	.	.	.	.	.	.	(8dd\L	.
.	.	.	.	.	.	.	.	.	.	.	.	.	.	8cc\J)	.
.	.	.	.	.	.	4d/	.	.	.	.	.	.	.	(8cc\L	.
.	.	.	.	.	.	.	.	.	.	.	.	.	.	8bn\J)	.
=12	=12	=12	=12	=12	=12	=12	=12	=12	=12	=12	=12	=12	=12	=12	=12
2.r	.	2.r	.	2.g/	.	2e-/	.	2.r	.	2.r	.	2.r	.	(8b-\L	.
.	.	.	.	.	.	.	.	.	.	.	.	.	.	8cc\J)	.
.	.	.	.	.	.	.	.	.	.	.	.	.	.	4cc\	.
.	.	.	.	.	.	4en/	.	.	.	.	.	.	.	(16ee-\LL	.
.	.	.	.	.	.	.	.	.	.	.	.	.	.	16dd\	.
.	.	.	.	.	.	.	.	.	.	.	.	.	.	16cc\	.
.	.	.	.	.	.	.	.	.	.	.	.	.	.	16b-X\JJ)	.
=13	=13	=13	=13	=13	=13	=13	=13	=13	=13	=13	=13	=13	=13	=13	=13
.	.	.	.	.	.	.	.	.	.	.	.	.	.	8qqb-/	.
2.r	.	2.r	.	8f'/L	.	4f/	.	2.r	.	2.r	.	2.r	.	4an\	.
.	.	.	.	8f'/	.	.	.	.	.	.	.	.	.	.	.
.	.	.	.	8f'/	.	4r	.	.	.	.	.	.	.	4r	.
.	.	.	.	8f'/	.	.	.	.	.	.	.	.	.	.	.
.	.	.	.	8f'/	.	4r	.	.	.	.	.	.	.	4r	.
.	.	.	.	8f'/J	.	.	.	.	.	.	.	.	.	.	.
=14	=14	=14	=14	=14	=14	=14	=14	=14	=14	=14	=14	=14	=14	=14	=14
*	*	*	*	*tremolo	*	*	*	*	*	*	*	*	*	*	*
2.r	.	2.r	.	8f/L	.	2.r	.	2.r	.	2.r	.	2.r	.	2.r	.
.	.	.	.	8f/	.	.	.	.	.	.	.	.	.	.	.
.	.	.	.	8f/	.	.	.	.	.	.	.	.	.	.	.
.	.	.	.	8f/	.	.	.	.	.	.	.	.	.	.	.
.	.	.	.	8f/	.	.	.	.	.	.	.	.	.	.	.
.	.	.	.	8f/J	.	.	.	.	.	.	.	.	.	.	.
=15	=15	=15	=15	=15	=15	=15	=15	=15	=15	=15	=15	=15	=15	=15	=15
2.r	.	2.r	.	8f/L	.	4r	.	2.r	.	2.r	.	2.r	.	4r	.
.	.	.	.	8f/	.	.	.	.	.	.	.	.	.	.	.
.	.	.	.	8f/	.	8r	.	.	.	.	.	.	.	8r	.
!	!	!	!	!	!	!	!	!	!	!	!	!	!	!LO:TX:b:i:t=dolce	!
.	.	.	.	8f/	.	(8an/L	.	.	.	.	.	.	.	(8cc\L	.
.	.	.	.	8f/	.	(8a/)	.	.	.	.	.	.	.	8cc\	.
.	.	.	.	8f/J	.	8g/J)	.	.	.	.	.	.	.	8b-\J)	.
=16	=16	=16	=16	=16	=16	=16	=16	=16	=16	=16	=16	=16	=16	=16	=16
2.r	.	2.r	.	4f/	.	(8g/L	.	2.r	.	2.r	.	2.r	.	(8b-\L	.
.	.	.	.	.	.	8f/J)	.	.	.	.	.	.	.	8an\J)	.
.	.	.	.	4r	.	(16f/LL	.	.	.	.	.	.	.	(16a\LL	.
.	.	.	.	.	.	16g/	.	.	.	.	.	.	.	16b-\	.
.	.	.	.	.	.	16a-/	.	.	.	.	.	.	.	16cc\	.
.	.	.	.	.	.	16b-/JJ)	.	.	.	.	.	.	.	16dd\JJ)	.
.	.	.	.	4r	.	(16cc\LL	.	.	.	.	.	.	.	(16ee-\LL	.
.	.	.	.	.	.	16bn\)	.	.	.	.	.	.	.	16dd\)	.
.	.	.	.	.	.	(16cc\	.	.	.	.	.	.	.	(16ee-\	.
.	.	.	.	.	.	16b\JJ)	.	.	.	.	.	.	.	16dd\JJ)	.
=17	=17	=17	=17	=17	=17	=17	=17	=17	=17	=17	=17	=17	=17	=17	=17
2.r	.	2.r	.	4r	.	2.cc\	.	2.r	.	2.r	.	2.r	.	4.ee-\	.
.	.	.	.	16cc/LL	.	.	.	.	.	.	.	.	.	.	.
.	.	.	.	16b-/	.	.	.	.	.	.	.	.	.	.	.
.	.	.	.	16an/	.	.	.	.	.	.	.	.	.	8ff'\L	.
.	.	.	.	16g/JJ	.	.	.	.	.	.	.	.	.	.	.
.	.	.	.	16f/LL	.	.	.	.	.	.	.	.	.	8gg'\	.
.	.	.	.	16e-/	.	.	.	.	.	.	.	.	.	.	.
.	.	.	.	16d/	.	.	.	.	.	.	.	.	.	8aan'\J	.
.	.	.	.	16c/JJ	.	.	.	.	.	.	.	.	.	.	.
!	!	!	!	!	!	!	!	!	!	!	!	!	!	!LO:LB:g=original	!
=18	=18	=18	=18	=18	=18	=18	=18	=18	=18	=18	=18	=18	=18	=18	=18
2.r	.	2.r	.	4B-/	.	4dd\	.	2.r	.	2.r	.	2.r	.	4bb-\	.
*	*	*	*	*	*	*Xtuplet	*	*	*	*	*	*	*	*Xtuplet	*
!	!	!	!	!	!	!LO:TX:b:i:t=dolce	!	!	!	!	!	!	!	!	!
!	!	!	!	!	!	!LO:TX:t=P:problem=klamra łukowa, kropka zamiast numeru	!	!	!	!	!	!	!	!	!
.	.	.	.	4r	.	(12gg\L	.	.	.	.	.	.	.	(12bb-'\L	.
.	.	.	.	.	.	12ff\	.	.	.	.	.	.	.	12aan'\	.
.	.	.	.	.	.	12ee-\J)	.	.	.	.	.	.	.	12gg'\J	.
.	.	.	.	4r	.	(12dd'\L	.	.	.	.	.	.	.	12ff'\L	.
.	.	.	.	.	.	12cc'\	.	.	.	.	.	.	.	12ee-'\	.
.	.	.	.	.	.	12b-'\J)	.	.	.	.	.	.	.	12dd'\J)	.
=19	=19	=19	=19	=19	=19	=19	=19	=19	=19	=19	=19	=19	=19	=19	=19
.	.	.	.	.	.	.	.	.	.	.	.	.	.	8qqdd/	.
!	!LO:DY:b:t=po&colon;	!	!LO:DY:b:t=po	!	!	!	!	!	!	!	!	!	!	!	!
4F\	p	8an\L 8cc	p	8f'/L	.	4an\	.	2.r	.	2.r	.	2.r	.	4cc\	.
.	.	8a\ 8cc	.	8f'/	.	.	.	.	.	.	.	.	.	.	.
4FF/	.	8a\ 8cc	.	8f'/	.	4r	.	.	.	.	.	.	.	4r	.
.	.	8a\J 8cc	.	8f'/	.	.	.	.	.	.	.	.	.	.	.
4r	.	8a\L 8cc	.	8f'/	.	4r	.	.	.	.	.	.	.	4r	.
.	.	8a\J 8cc	.	8f'/J	.	.	.	.	.	.	.	.	.	.	.
!	!	!	!	!LO:LB:g=original	!	!	!	!	!	!	!	!	!	!	!
=20	=20	=20	=20	=20	=20	=20	=20	=20	=20	=20	=20	=20	=20	=20	=20
4B-\	.	(2.b-\ 2.dd	.	8f/L	.	2.r	.	2.r	.	2.r	.	2.r	.	2.r	.
.	.	.	.	8f/	.	.	.	.	.	.	.	.	.	.	.
4BB-/	.	.	.	8f/	.	.	.	.	.	.	.	.	.	.	.
.	.	.	.	8f/	.	.	.	.	.	.	.	.	.	.	.
4r	.	.	.	8f/	.	.	.	.	.	.	.	.	.	.	.
.	.	.	.	8f/J	.	.	.	.	.	.	.	.	.	.	.
=21	=21	=21	=21	=21	=21	=21	=21	=21	=21	=21	=21	=21	=21	=21	=21
4F\	.	2.cc\) 2.ee-	.	8f/L	.	2.r	.	2.r	.	2.r	.	4r	.	4r	.
.	.	.	.	8f/	.	.	.	.	.	.	.	.	.	.	.
4FF/	.	.	.	8f/	.	.	.	.	.	.	.	8r	.	8r	.
!	!	!	!	!	!	!	!	!	!	!	!	!	!LO:DY:b:t=po&colon;	!	!
.	.	.	.	8f/J	.	.	.	.	.	.	.	(8cc\L	p	(8ee-\L	.
*	*	*	*	*Xtremolo	*	*	*	*	*	*	*	*	*	*	*
4r	.	.	.	(8f/L	.	.	.	.	.	.	.	8cc\	.	8ee-\	.
.	.	.	.	8g/J)	.	.	.	.	.	.	.	8ee-\J)	.	8gg\J)	.
!	!	!	!	!	!	!LO:LB:g=original	!	!	!	!	!	!	!	!	!
=22	=22	=22	=22	=22	=22	=22	=22	=22	=22	=22	=22	=22	=22	=22	=22
2.BB-/	.	(8cc\L 8ee-	.	(8g/L	.	4r	.	2.r	.	2.r	.	(8ee-\L	fz	(8gg\L	.
.	.	8b-\) 8dd	.	8f/)	.	.	.	.	.	.	.	8dd\)	.	8ff\)	.
.	.	(8b-\ 8dd	.	(8f/	.	8r	.	.	.	.	.	(8dd\	.	(8ff\	.
.	.	8an\) 8cc	.	8e-/)	.	(8an\L	.	.	.	.	.	8cc\)	.	8aan\)	.
.	.	(8a\ 8cc	.	(8e-/	.	(8a\)	.	.	.	.	.	(8cc\	.	(8aa\	.
.	.	8b-\J) 8dd	.	8d/J)	.	8b-\J)	.	.	.	.	.	8dd\J)	.	8bb-\J)	.
=23	=23	=23	=23	=23	=23	=23	=23	=23	=23	=23	=23	=23	=23	=23	=23
.	.	.	.	8qqf/	.	8qqa-X/	.	.	.	.	.	8qqff/	.	8qgg/	.
4E-\	.	4g\	.	(8e-/L	.	8g/L	.	4r	.	4r	.	8ee-\L	.	8gg\L	.
.	.	.	.	16d/L	.	16f/L	.	.	.	.	.	(16dd\L	.	(16ff\L	.
.	.	.	.	16c/JJ)	.	16e-/JJ	.	.	.	.	.	16cc\JJ)	.	16ee-\JJ)	.
!	!	!	!	!	!	!	!	!	!LO:DY:b:t=po	!	!LO:DY:b:t=po.	!	!	!	!
4F\	.	4f\	.	4B-/	.	4d/	.	2B-/	p	4g\	p	4b-\	.	4dd\	.
!	!	!	!	!	!	!	!	!	!	!	!	!	!	!LO:TX:a:B:t=t	!
4FF/	.	4f\	.	4An/	.	4c/	.	.	.	4f\	.	4an\	.	4cc\	.
=24	=24	=24	=24	=24	=24	=24	=24	=24	=24	=24	=24	=24	=24	=24	=24
4BB-/	.	4f\	.	4B-/	.	4B-/	.	4G/	.	4e-\	.	4b-\	.	4b-\	.
4r	.	4r	.	4r	.	4r	.	4r	.	4r	.	4r	.	(12bb-'\L	.
.	.	.	.	.	.	.	.	.	.	.	.	.	.	12aan'\	.
.	.	.	.	.	.	.	.	.	.	.	.	.	.	12gg'\J)	.
4r	.	4r	.	4r	.	4r	.	4r	.	4r	.	4r	.	(12ff'\L	.
.	.	.	.	.	.	.	.	.	.	.	.	.	.	12ee-'\	.
.	.	.	.	.	.	.	.	.	.	.	.	.	.	12dd'\J)	.
!	!	!	!	!	!	!	!	!	!	!	!	!	!	!LO:LB:g=original	!
=25	=25	=25	=25	=25	=25	=25	=25	=25	=25	=25	=25	=25	=25	=25	=25
!	!	!LO:TX:a:t=4	!	!	!	!	!	!	!	!	!	!	!	!	!
.	.	.	.	.	.	.	.	.	.	.	.	.	.	8qqdd/	.
2.r	.	2.r	.	4An/	.	4An/	.	2.r	.	2.r	.	2.r	.	4cc\	.
.	.	.	.	4r	.	4r	.	.	.	.	.	.	.	(12ccc'\L	.
.	.	.	.	.	.	.	.	.	.	.	.	.	.	12bb-'\	.
.	.	.	.	.	.	.	.	.	.	.	.	.	.	12aan'\J)	.
.	.	.	.	4r	.	4r	.	.	.	.	.	.	.	(12gg'\L	.
.	.	.	.	.	.	.	.	.	.	.	.	.	.	12ff'\	.
.	.	.	.	.	.	.	.	.	.	.	.	.	.	12ee-'\J)	.
=26	=26	=26	=26	=26	=26	=26	=26	=26	=26	=26	=26	=26	=26	=26	=26
.	.	.	.	.	.	.	.	.	.	.	.	.	.	8qqee-/	.
2.r	.	2.r	.	4B-/	.	4B-/	.	2.r	.	2.r	.	2.r	.	4dd\	.
.	.	.	.	4r	.	4r	.	.	.	.	.	.	.	(12ddd'\L	.
.	.	.	.	.	.	.	.	.	.	.	.	.	.	12ccc'\	.
.	.	.	.	.	.	.	.	.	.	.	.	.	.	12bb-'\J)	.
.	.	.	.	4r	.	4r	.	.	.	.	.	.	.	(12aan'\L	.
.	.	.	.	.	.	.	.	.	.	.	.	.	.	12gg'\	.
.	.	.	.	.	.	.	.	.	.	.	.	.	.	12ff'\J)	.
=27	=27	=27	=27	=27	=27	=27	=27	=27	=27	=27	=27	=27	=27	=27	=27
!	!	!	!	!	!	!	!	!	!	!	!	!	!	!LO:TX:t=P:problem=klamra łukowa, kropka zamiast numeru	!
2.r	.	2.r	.	2.r	.	2.r	.	2.r	.	2.r	.	2.r	.	(12bb-\L	.
.	.	.	.	.	.	.	.	.	.	.	.	.	.	12aan\	.
.	.	.	.	.	.	.	.	.	.	.	.	.	.	12gg\J)	.
!	!	!	!	!	!	!	!	!	!	!	!	!	!	!LO:TX:t=P:problem=klamra łukowa, kropka zamiast numeru	!
.	.	.	.	.	.	.	.	.	.	.	.	.	.	(12ff\L	.
.	.	.	.	.	.	.	.	.	.	.	.	.	.	12ee-\	.
.	.	.	.	.	.	.	.	.	.	.	.	.	.	12dd\J)	.
!	!	!	!	!	!	!	!	!	!	!	!	!	!	!LO:TX:t=P:problem=klamra łukowa, kropka zamiast numeru	!
.	.	.	.	.	.	.	.	.	.	.	.	.	.	(12gg\L	.
.	.	.	.	.	.	.	.	.	.	.	.	.	.	12ff\	.
.	.	.	.	.	.	.	.	.	.	.	.	.	.	12ee-\J)	.
=28	=28	=28	=28	=28	=28	=28	=28	=28	=28	=28	=28	=28	=28	=28	=28
!	!	!	!	!	!	!	!	!	!	!	!	!	!	!LO:TX:t=P:problem=klamra łukowa, kropka zamiast numeru	!
2.r	.	2.r	.	4r	.	4r	.	2.r	.	2.r	.	2.r	.	12ee-\L	.
.	.	.	.	.	.	.	.	.	.	.	.	.	.	12cc\	.
.	.	.	.	.	.	.	.	.	.	.	.	.	.	12b-\J	.
!	!	!	!	!	!	!	!	!	!	!	!	!	!	!LO:TX:a:B:t=t	!
.	.	.	.	(8e-/L	.	4b-\	.	.	.	.	.	.	.	2cc\	.
.	.	.	.	8g/	.	.	.	.	.	.	.	.	.	.	.
.	.	.	.	8f/	.	4an\	.	.	.	.	.	.	.	.	.
.	.	.	.	8e-/J)	.	.	.	.	.	.	.	.	.	.	.
!	!	!LO:LB:g=original	!	!	!	!	!	!	!	!	!	!	!	!	!
=29	=29	=29	=29	=29	=29	=29	=29	=29	=29	=29	=29	=29	=29	=29	=29
!	!	!	!	!	!	!	!	!	!	!	!	!	!	!	!LO:DY:b:t=pia.
4r	.	4r	.	4d/	.	[2.b-\	.	2.r	.	2.r	.	2.r	.	[2.b-\	p
!	!	!	!LO:DY:b:t=po	!	!	!	!	!	!	!	!	!	!	!	!
(4BB-/	.	4B-/	p	4r	.	.	.	.	.	.	.	.	.	.	.
4AA-X/)	.	4A-X/	.	4r	.	.	.	.	.	.	.	.	.	.	.
=30	=30	=30	=30	=30	=30	=30	=30	=30	=30	=30	=30	=30	=30	=30	=30
4GG/	.	4G/	.	4e-/	.	4b-\]	.	2.r	.	2.r	.	2.r	.	4b-\]	.
4r	.	4r	.	8.e-/L	.	8.g\L	.	.	.	.	.	.	.	4r	.
.	.	.	.	16f/K	.	16a-\K	.	.	.	.	.	.	.	.	.
4r	.	4r	.	8.g/	.	8.b-\	.	.	.	.	.	.	.	4r	.
.	.	.	.	16a-/Jk	.	16cc\Jk	.	.	.	.	.	.	.	.	.
!	!	!	!	!LO:LB:g=original	!	!	!	!	!	!	!	!	!	!	!
=31	=31	=31	=31	=31	=31	=31	=31	=31	=31	=31	=31	=31	=31	=31	=31
.	.	.	.	.	.	8qqb-/	.	.	.	.	.	.	.	.	.
2C/	.	4r	.	4f/	.	4a-\	.	2.r	.	2.r	.	2.r	.	2.r	.
.	.	4c/	.	4f/	.	4a-\	.	.	.	.	.	.	.	.	.
4BB-/	.	4B-/	.	8r	.	8r	.	.	.	.	.	.	.	.	.
.	.	.	.	8e-/	.	8g/	.	.	.	.	.	.	.	.	.
=32	=32	=32	=32	=32	=32	=32	=32	=32	=32	=32	=32	=32	=32	=32	=32
2AA-/	.	2A-/	.	4e-/	.	4f/	.	2.r	.	2.r	.	2.r	.	2.r	.
.	.	.	.	2c/	.	4.f/	.	.	.	.	.	.	.	.	.
4AAn/	.	4An/	.	.	.	.	.	.	.	.	.	.	.	.	.
.	.	.	.	.	.	8e-/	.	.	.	.	.	.	.	.	.
!	!	!	!	!	!	!LO:LB:g=original	!	!	!	!	!	!	!	!	!
=33	=33	=33	=33	=33	=33	=33	=33	=33	=33	=33	=33	=33	=33	=33	=33
4BB-/	.	4B-/	.	(16B-/LL	.	(16d/LL	.	2.r	.	2.r	.	2.r	.	2.r	.
.	.	.	.	16d/)	.	16f/	.	.	.	.	.	.	.	.	.
.	.	.	.	(16c/	.	16e-/	.	.	.	.	.	.	.	.	.
.	.	.	.	16e-/JJ)	.	16g/JJ	.	.	.	.	.	.	.	.	.
4BB-/	.	4B-/	.	4e-/	.	4g/)	.	.	.	.	.	.	.	.	.
4BB-/	.	4B-/	.	8d/	.	8.f/L	.	.	.	.	.	.	.	.	.
.	.	.	.	8r	.	.	.	.	.	.	.	.	.	.	.
.	.	.	.	.	.	[16b-/Jk	.	.	.	.	.	.	.	.	.
!LO:LB:g=original	!	!	!	!	!	!	!	!	!	!	!	!	!	!LO:LB:g=original	!
=34	=34	=34	=34	=34	=34	=34	=34	=34	=34	=34	=34	=34	=34	=34	=34
!	!	!	!	!	!	!	!	!	!	!	!	!	!LO:DY:b:t=po&colon;	!	!
2E-\	.	2.B-/	.	4e-/	.	4b-\]	.	2.r	.	2.r	.	4gg\	p	(4bb-\	.
!	!	!	!	!	!	!	!	!	!	!	!	!	!	!LO:TX:b:i:t=dolce	!
.	.	.	.	4e-/	.	8.g\L	.	.	.	.	.	8.ee-\L	.	8.gg\L	.
.	.	.	.	.	.	16a-\K	.	.	.	.	.	16ff\K	.	16aa-\K)	.
4D\	.	.	.	4f/	.	8.b-\	.	.	.	.	.	8.gg\	.	8.bb-\	.
.	.	.	.	.	.	16cc\Jk	.	.	.	.	.	16aa-\Jk	.	16ccc\Jk	.
=35	=35	=35	=35	=35	=35	=35	=35	=35	=35	=35	=35	=35	=35	=35	=35
!	!LO:DY:b:t=for.	!	!LO:DY:b:t=for	!	!	!	!	!	!	!	!	!	!	!	!LO:DY:b:t=for&colon;
4C/	f	4c/	f	4f/	.	4a-\	.	4r	.	4r	.	2.ff\	fz	2.aa-\	f
!	!	!	!	!	!LO:DY:b:t=for	!	!	!	!	!	!	!	!	!	!
4BB-/	.	4B-/	.	2f/	f	2ee-\	fz	2e-\	.	2g\	.	.	.	.	.
4AA-/	.	4A-/	.	.	.	.	.	.	.	.	.	.	.	.	.
!	!	!	!	!	!	!	!	!	!	!	!	!LO:LB:g=original	!	!	!
=36	=36	=36	=36	=36	=36	=36	=36	=36	=36	=36	=36	=36	=36	=36	=36
*	*	*	*	*	*	*tuplet	*	*	*	*	*	*	*	*	*
!	!	!	!	!	!	!LO:TUP:a	!	!	!	!	!	!	!	!	!
8.GG/L	.	2.B-/	.	2e-/	.	(24ee-\LL	.	2e-\	.	4a-\	.	2ee-\	.	2gg\	.
.	.	.	.	.	.	24dd\	.	.	.	.	.	.	.	.	.
.	.	.	.	.	.	24cc\	.	.	.	.	.	.	.	.	.
.	.	.	.	.	.	24b-\	.	.	.	.	.	.	.	.	.
.	.	.	.	.	.	24a-\	.	.	.	.	.	.	.	.	.
16AA-/Jk	.	.	.	.	.	.	.	.	.	.	.	.	.	.	.
.	.	.	.	.	.	24g\JJ)	.	.	.	.	.	.	.	.	.
4BB-/	.	.	.	.	.	4B-/	.	.	.	4a-\	.	.	.	.	.
4BB-/	.	.	.	4d/	.	4f/	.	4E-/	.	4g\	.	(4a-/	.	4ff\	.
=37	=37	=37	=37	=37	=37	=37	=37	=37	=37	=37	=37	=37	=37	=37	=37
.	.	.	.	8qqd/	.	8qqf/	.	.	.	8qqg/	.	.	.	.	.
!	!	!	!LO:DY:b:t=po.	!	!	!	!	!	!	!	!	!	!	!	!
4E-\	.	2B-/	p	2e-/	.	2e-/	.	2E-/	.	2a-\	.	4g/)	.	4ee-\	.
4EE-/	.	.	.	.	.	.	.	.	.	.	.	4r	.	4r	.
!	!	!	!	!	!	!	!	!	!	!	!	!LO:TX:b:i:t=dolce	!	!LO:TX:b:i:t=dolce	!
4r	.	4r	.	4r	.	4r	.	4r	.	4r	.	[4dd\	.	[4ff\	.
!	!	!	!	!	!	!	!	!	!	!LO:LB:g=original	!	!	!	!	!
=38	=38	=38	=38	=38	=38	=38	=38	=38	=38	=38	=38	=38	=38	=38	=38
!	!LO:DY:b:t=po&colon;	!	!	!	!	!	!	!	!	!	!	!	!	!	!
4BB-/	p	2.r	.	2.r	.	8B-'/L	.	2.r	.	2.r	.	4dd\]	.	4ff\]	.
.	.	.	.	.	.	8f'/	.	.	.	.	.	.	.	.	.
4r	.	.	.	.	.	8An'/	.	.	.	.	.	4cc\	.	4ee-\	.
.	.	.	.	.	.	8f'/	.	.	.	.	.	.	.	.	.
4r	.	.	.	.	.	8B-'/	.	.	.	.	.	4b-\	.	[4dd\	.
.	.	.	.	.	.	8f'/J	.	.	.	.	.	.	.	.	.
=39	=39	=39	=39	=39	=39	=39	=39	=39	=39	=39	=39	=39	=39	=39	=39
4F\	.	2.r	.	2.r	.	8B-'/L	.	2.r	.	2.r	.	(4b-\	.	4dd\]	.
.	.	.	.	.	.	8f'/	.	.	.	.	.	.	.	.	.
4r	.	.	.	.	.	8e-'/	.	.	.	.	.	4an\)	.	4cc\	.
.	.	.	.	.	.	8f'/	.	.	.	.	.	.	.	.	.
4r	.	.	.	.	.	8d'/	.	.	.	.	.	4b-\	.	4dd\	.
.	.	.	.	.	.	8f'/J	.	.	.	.	.	.	.	.	.
=40	=40	=40	=40	=40	=40	=40	=40	=40	=40	=40	=40	=40	=40	=40	=40
4AAn/	.	2.r	.	2.r	.	8c'/L	.	2.r	.	2.r	.	2cc\	.	2ee-\	.
.	.	.	.	.	.	8f'/	.	.	.	.	.	.	.	.	.
4r	.	.	.	.	.	8An'/	.	.	.	.	.	.	.	.	.
.	.	.	.	.	.	8f'/	.	.	.	.	.	.	.	.	.
4r	.	.	.	.	.	8B-'/	.	.	.	.	.	4b-\	.	4dd\	.
.	.	.	.	.	.	8f'/J	.	.	.	.	.	.	.	.	.
!	!	!	!	!	!	!	!	!LO:LB:g=original	!	!	!	!	!	!	!
=41	=41	=41	=41	=41	=41	=41	=41	=41	=41	=41	=41	=41	=41	=41	=41
!	!	!	!	!	!	!	!	!	!LO:DY:b:t=po.	!	!LO:DY:b:t=po&colon;	!	!	!	!
4F\	.	4r	.	4r	.	8B-'/L	.	2.B-/	p	2.B-/	p	4b-\	.	(4dd\	.
.	.	.	.	.	.	8f'/	.	.	.	.	.	.	.	.	.
4FF/	.	4r	.	4r	.	8An'/	.	.	.	.	.	4an\	.	4cc\)	.
.	.	.	.	.	.	8f'/	.	.	.	.	.	.	.	.	.
!	!	!	!LO:DY:b:t=po	!	!LO:DY:b:t=po&colon;	!	!	!	!	!	!	!	!	!	!
4r	.	4e-\	p	(4g/	p	8c'/	.	.	.	.	.	[4ee-\	.	4gg\	.
.	.	.	.	.	.	8f'/J	.	.	.	.	.	.	.	.	.
!	!	!	!	!	!	!LO:LB:g=original	!	!	!	!	!	!	!	!	!
=42	=42	=42	=42	=42	=42	=42	=42	=42	=42	=42	=42	=42	=42	=42	=42
2.r	.	(4e-\	.	4g/)	.	8An'/L	.	2.B-/	.	2.B-/	.	4ee-\]	.	(4gg\	.
.	.	.	.	.	.	8f'/	.	.	.	.	.	.	.	.	.
.	.	4d\	.	(4f/	.	8B-'/	.	.	.	.	.	4dd\	.	4ff\)	.
.	.	.	.	.	.	8f'/	.	.	.	.	.	.	.	.	.
.	.	4c\)	.	4e-/)	.	8c'/	.	.	.	.	.	[4cc\	.	4ee-'\	.
.	.	.	.	.	.	8f'/J	.	.	.	.	.	.	.	.	.
!	!	!LO:LB:g=original	!	!	!	!	!	!	!	!	!	!	!	!	!
=43	=43	=43	=43	=43	=43	=43	=43	=43	=43	=43	=43	=43	=43	=43	=43
4r	.	4c\	.	(4e-/	.	8A-/L	.	2.B-/	.	2.B-/	.	4cc\]	.	(4ee-\	.
.	.	.	.	.	.	8f/	.	.	.	.	.	.	.	.	.
4r	.	(4B-\	.	4d/)	.	8B-/	.	.	.	.	.	4b-\	.	4dd\)	.
.	.	.	.	.	.	8f/	.	.	.	.	.	.	.	.	.
4F\	.	4c\)	.	4e-/	.	8c/	.	.	.	.	.	4cc\	.	4ee-'\	.
.	.	.	.	.	.	8f/J	.	.	.	.	.	.	.	.	.
!	!	!	!	!LO:LB:g=original	!	!	!	!	!	!	!	!	!	!	!
=44	=44	=44	=44	=44	=44	=44	=44	=44	=44	=44	=44	=44	=44	=44	=44
2B-\	.	2d\	.	2f/	.	8B-/L	.	2.B-/	.	2.B-/	.	2dd\	.	2ff\	.
.	.	.	.	.	.	8f/	.	.	.	.	.	.	.	.	.
.	.	.	.	.	.	8d/	.	.	.	.	.	.	.	.	.
.	.	.	.	.	.	8f/	.	.	.	.	.	.	.	.	.
4F\	.	4c\	.	4e-/	.	8A-/	.	.	.	.	.	4cc\	.	4ee-\	.
.	.	.	.	.	.	8f/J	.	.	.	.	.	.	.	.	.
!	!	!	!	!	!	!	!	!	!	!	!	!LO:LB:g=original	!	!LO:LB:g=original	!
=45	=45	=45	=45	=45	=45	=45	=45	=45	=45	=45	=45	=45	=45	=45	=45
2BB-/	.	(4c\	.	(4e-/	.	8B-/L	.	2B-/	.	2B-/	.	(4cc\	.	(4ee-\	.
.	.	.	.	.	.	8f/J	.	.	.	.	.	.	.	.	.
.	.	4B-\)	.	4d/)	.	4B-/	.	.	.	.	.	4b-\)	.	4dd\)	.
4r	.	4r	.	4r	.	4r	.	4r	.	4r	.	4r	.	8.bb-\L	.
.	.	.	.	.	.	.	.	.	.	.	.	.	.	16aan\Jk	.
!LO:LB:g=original	!	!	!	!	!	!	!	!	!	!	!	!	!	!	!
=46	=46	=46	=46	=46	=46	=46	=46	=46	=46	=46	=46	=46	=46	=46	=46
!	!	!	!	!	!	!	!	!	!	!LO:TX:a:t=23	!	!	!	!	!
4E-`\	.	2.r	.	2.r	.	2.r	.	2.r	.	2.r	.	2.r	.	(16gg\LL	.
.	.	.	.	.	.	.	.	.	.	.	.	.	.	16aa-X\	.
.	.	.	.	.	.	.	.	.	.	.	.	.	.	16gg\	.
.	.	.	.	.	.	.	.	.	.	.	.	.	.	16ff\JJ)	.
4r	.	.	.	.	.	.	.	.	.	.	.	.	.	(16ee-\LL	.
.	.	.	.	.	.	.	.	.	.	.	.	.	.	16ff\	.
.	.	.	.	.	.	.	.	.	.	.	.	.	.	16ee-\	.
.	.	.	.	.	.	.	.	.	.	.	.	.	.	16dd\JJ)	.
4r	.	.	.	.	.	.	.	.	.	.	.	.	.	(16cc\LL	.
.	.	.	.	.	.	.	.	.	.	.	.	.	.	16dd\	.
.	.	.	.	.	.	.	.	.	.	.	.	.	.	16cc\	.
.	.	.	.	.	.	.	.	.	.	.	.	.	.	16b-\JJ)	.
=47	=47	=47	=47	=47	=47	=47	=47	=47	=47	=47	=47	=47	=47	=47	=47
4F`\	.	2.f\	.	2.an\	.	2.cc\	.	2.r	.	2.r	.	2.r	.	4an\	.
4r	.	.	.	.	.	.	.	.	.	.	.	.	.	4r	.
4r	.	.	.	.	.	.	.	.	.	.	.	.	.	8.aan\L	.
.	.	.	.	.	.	.	.	.	.	.	.	.	.	16gg\Jk	.
=48	=48	=48	=48	=48	=48	=48	=48	=48	=48	=48	=48	=48	=48	=48	=48
!	!	!	!	!	!	!	!LO:DY:b:t=po..	!	!	!	!	!	!	!	!
4D`\	.	4f\	.	4dd\	.	4dd\	p	2.r	.	2.r	.	2.r	.	(16ff\LL	.
.	.	.	.	.	.	.	.	.	.	.	.	.	.	16gg\	.
.	.	.	.	.	.	.	.	.	.	.	.	.	.	16ff\	.
.	.	.	.	.	.	.	.	.	.	.	.	.	.	16ee-\JJ)	.
4r	.	4r	.	4r	.	4r	.	.	.	.	.	.	.	(16dd\LL	.
.	.	.	.	.	.	.	.	.	.	.	.	.	.	16ee-\	.
.	.	.	.	.	.	.	.	.	.	.	.	.	.	16dd\	.
.	.	.	.	.	.	.	.	.	.	.	.	.	.	16cc\JJ)	.
4r	.	4r	.	4r	.	4r	.	.	.	.	.	.	.	(16b-\LL	.
.	.	.	.	.	.	.	.	.	.	.	.	.	.	16cc\	.
.	.	.	.	.	.	.	.	.	.	.	.	.	.	16b-\	.
.	.	.	.	.	.	.	.	.	.	.	.	.	.	16a-X\JJ)	.
=49	=49	=49	=49	=49	=49	=49	=49	=49	=49	=49	=49	=49	=49	=49	=49
4E-`\	.	2.e-\	.	2.g/	.	2.b-\	.	2.r	.	2.r	.	2.r	.	4g/	.
4r	.	.	.	.	.	.	.	.	.	.	.	.	.	4r	.
4r	.	.	.	.	.	.	.	.	.	.	.	.	.	8.gg\L	.
.	.	.	.	.	.	.	.	.	.	.	.	.	.	16ff\Jk	.
!	!	!	!	!	!	!	!	!	!	!	!	!	!	!LO:LB:g=original	!
=50	=50	=50	=50	=50	=50	=50	=50	=50	=50	=50	=50	=50	=50	=50	=50
4C`\	.	4e-\	.	4an/	.	4cc\	.	2.r	.	2.r	.	2.r	.	(16ee-\LL	.
.	.	.	.	.	.	.	.	.	.	.	.	.	.	16ff\	.
.	.	.	.	.	.	.	.	.	.	.	.	.	.	16ee-\	.
.	.	.	.	.	.	.	.	.	.	.	.	.	.	16dd\JJ)	.
4r	.	4r	.	4r	.	4r	.	.	.	.	.	.	.	(16cc\LL	.
.	.	.	.	.	.	.	.	.	.	.	.	.	.	16dd\	.
.	.	.	.	.	.	.	.	.	.	.	.	.	.	16cc\	.
.	.	.	.	.	.	.	.	.	.	.	.	.	.	16b-\JJ)	.
4r	.	4r	.	4r	.	4r	.	.	.	.	.	.	.	(16an/LL	.
.	.	.	.	.	.	.	.	.	.	.	.	.	.	16b-/	.
.	.	.	.	.	.	.	.	.	.	.	.	.	.	16a/	.
.	.	.	.	.	.	.	.	.	.	.	.	.	.	16g/JJ)	.
=51	=51	=51	=51	=51	=51	=51	=51	=51	=51	=51	=51	=51	=51	=51	=51
4D`\	.	2.d\	.	2.f#X/	.	2.an\	.	2.r	.	2.r	.	2.r	.	4f#X/	.
4r	.	.	.	.	.	.	.	.	.	.	.	.	.	4r	.
4r	.	.	.	.	.	.	.	.	.	.	.	.	.	4r	.
=52	=52	=52	=52	=52	=52	=52	=52	=52	=52	=52	=52	=52	=52	=52	=52
4GG`\	.	4d\	.	4g/	.	4b-\	.	2.r	.	2.r	.	2.r	.	2.r	.
4r	.	4r	.	4r	.	4r	.	.	.	.	.	.	.	.	.
4r	.	4r	.	4r	.	4r	.	.	.	.	.	.	.	.	.
=53	=53	=53	=53	=53	=53	=53	=53	=53	=53	=53	=53	=53	=53	=53	=53
4D\	.	4d\	.	4r	.	4r	.	2.r	.	2.r	.	2.r	.	4r	.
4D\	.	4d\	.	2c/	.	2f#X/	.	.	.	.	.	.	.	8r	.
.	.	.	.	.	.	.	.	.	.	.	.	.	.	(4aan\	.
4D\	.	4d\	.	.	.	.	.	.	.	.	.	.	.	.	.
.	.	.	.	.	.	.	.	.	.	.	.	.	.	8ff#X\)	.
=54	=54	=54	=54	=54	=54	=54	=54	=54	=54	=54	=54	=54	=54	=54	=54
!	!	!	!	!	!	!	!	!	!	!	!	!	!	!LO:TX:a:B:t=t	!
4D\	.	4d\	.	2.B-/	.	2.g/	.	2.r	.	2.r	.	2.r	.	(4ff\	.
4D\	.	4d\	.	.	.	.	.	.	.	.	.	.	.	8gg\L)	.
.	.	.	.	.	.	.	.	.	.	.	.	.	.	8dd'\	.
4D\	.	4d\	.	.	.	.	.	.	.	.	.	.	.	8cc'\	.
.	.	.	.	.	.	.	.	.	.	.	.	.	.	8b-'\J	.
!	!	!LO:LB:g=original	!	!	!	!LO:LB:g=original	!	!	!	!	!	!	!	!	!
=55	=55	=55	=55	=55	=55	=55	=55	=55	=55	=55	=55	=55	=55	=55	=55
.	.	.	.	.	.	.	.	.	.	.	.	.	.	8qqb-/	.
4D\	.	4d\	.	(8B-/L	.	(8g/L	.	2.r	.	2.r	.	2.r	.	4an\	.
.	.	.	.	8An/J)	.	8f#X/J)	.	.	.	.	.	.	.	.	.
4d\	.	4d\	.	4r	.	4r	.	.	.	.	.	.	.	4r	.
4d\	.	4d\	.	4r	.	4r	.	.	.	.	.	.	.	4r	.
=56	=56	=56	=56	=56	=56	=56	=56	=56	=56	=56	=56	=56	=56	=56	=56
4d\	.	4d\	.	2.r	.	2.r	.	2.r	.	2.r	.	2.r	.	2.r	.
4d\	.	4d\	.	.	.	.	.	.	.	.	.	.	.	.	.
4d\	.	4d\	.	.	.	.	.	.	.	.	.	.	.	.	.
=57	=57	=57	=57	=57	=57	=57	=57	=57	=57	=57	=57	=57	=57	=57	=57
4d\	.	4d\	.	2.r	.	2.r	.	2.r	.	2.r	.	4r	.	4r	.
4D\	.	4d\	.	.	.	.	.	.	.	.	.	8r	.	8r	.
.	.	.	.	.	.	.	.	.	.	.	.	(8an\L	.	(8cc\L	.
4r	.	4r	.	.	.	.	.	.	.	.	.	8a\	.	8cc\	.
.	.	.	.	.	.	.	.	.	.	.	.	8cc\J)	.	8ee-X\J)	.
!LO:LB:g=original	!	!	!	!	!	!	!	!	!	!	!	!	!	!LO:LB:g=original	!
=58	=58	=58	=58	=58	=58	=58	=58	=58	=58	=58	=58	=58	=58	=58	=58
2.G\	.	2.G/	.	8r	.	8r	.	2.r	.	2.r	.	(8cc\L	.	(8ee-\L	.
.	.	.	.	(8B-/L	.	(8d/L	.	.	.	.	.	8b-\)	.	8dd\)	.
.	.	.	.	(8B-/)	.	8d/	.	.	.	.	.	(8b-\	.	(8dd\	.
.	.	.	.	8An/)	.	8f#X/	.	.	.	.	.	8an\)	.	8ff#X\)	.
.	.	.	.	(8A/	.	8f#/	.	.	.	.	.	(8a\	.	(8ff#\	.
.	.	.	.	8B-/J)	.	8g/J)	.	.	.	.	.	8b-\J)	.	8gg\J)	.
!	!	!	!	!LO:LB:g=original	!	!	!	!	!	!	!	!	!	!	!
=59	=59	=59	=59	=59	=59	=59	=59	=59	=59	=59	=59	=59	=59	=59	=59
.	.	.	.	8qqd/	.	8qqf/	.	.	.	.	.	8qdd/	.	8qqff/	.
4C\	.	4c\	.	8c/L	.	8e-/L	.	2.r	.	2.r	.	8cc\L	.	8ee-\L	.
.	.	.	.	16B-/L	.	16d/L	.	.	.	.	.	16b-\L	.	16dd\L	.
.	.	.	.	16A-X/JJ	.	16c/JJ	.	.	.	.	.	16a-\JJ	.	16cc\JJ	.
4D\	.	4d\	.	4G/	.	4B-/	.	.	.	.	.	4g/	.	4b-\	.
!	!	!	!	!	!	!LO:TX:a:B:t=t	!	!	!	!	!	!LO:TX:a:B:t=t	!	!LO:TX:a:B:t=t	!
4DD/	.	4d\	.	4A-/	.	4An/	.	.	.	.	.	4f#X/	.	4an\	.
=60	=60	=60	=60	=60	=60	=60	=60	=60	=60	=60	=60	=60	=60	=60	=60
4GG/	.	4G/	.	4G/	.	4G/	.	2.r	.	2.r	.	4g/	.	4g/	.
4r	.	4r	.	4r	.	4g/	.	.	.	.	.	4r	.	4r	.
4r	.	4r	.	4r	.	4g/	.	.	.	.	.	4r	.	4r	.
=61	=61	=61	=61	=61	=61	=61	=61	=61	=61	=61	=61	=61	=61	=61	=61
4r	.	2.r	.	2.r	.	(4g/	.	2.r	.	2.r	.	2.r	.	2.r	.
(4AAn/	.	.	.	.	.	4f#X/	.	.	.	.	.	.	.	.	.
4BB-/)	.	.	.	.	.	4g/)	.	.	.	.	.	.	.	.	.
=62	=62	=62	=62	=62	=62	=62	=62	=62	=62	=62	=62	=62	=62	=62	=62
!	!	!	!	!	!LO:DY:b:t=po.	!	!	!	!	!	!	!	!	!	!
(4C/	.	2.r	.	4r	p	[2.a-X/	.	2.r	.	2.r	.	2.r	.	2.r	.
4BBn/	.	.	.	(4d/	.	.	.	.	.	.	.	.	.	.	.
4C/)	.	.	.	4e-/)	.	.	.	.	.	.	.	.	.	.	.
!	!	!	!	!	!	!	!	!	!	!	!	!LO:LB:g=original	!	!	!
=63	=63	=63	=63	=63	=63	=63	=63	=63	=63	=63	=63	=63	=63	=63	=63
(4D\	.	4r	.	2.f/	.	2.a-X/]	.	2.r	.	2.r	.	4r	.	4r	.
!	!	!	!	!	!	!	!	!	!	!	!	!	!LO:DY:b:t=po	!	!LO:DY:b:t=po.
4C\	.	(4c\	.	.	.	.	.	.	.	.	.	(4a-X/	p	(4cc\	p
4D\)	.	4d\)	.	.	.	.	.	.	.	.	.	4f/)	.	4dd\)	.
=64	=64	=64	=64	=64	=64	=64	=64	=64	=64	=64	=64	=64	=64	=64	=64
(2E-\	.	4e-\	.	4g/	.	4g/	.	2.r	.	2.r	.	4g/	.	4ee-\	.
.	.	4r	.	8.e-/L	.	8.g/L	.	.	.	.	.	4r	.	4r	.
.	.	.	.	16f/K	.	16a-/K	.	.	.	.	.	.	.	.	.
4D\)	.	4r	.	8.g/	.	8.b-/	.	.	.	.	.	4r	.	4r	.
.	.	.	.	16a-/Jk	.	16cc/Jk	.	.	.	.	.	.	.	.	.
=65	=65	=65	=65	=65	=65	=65	=65	=65	=65	=65	=65	=65	=65	=65	=65
(2C/	.	2c/	.	4f/	.	[4a-/	.	2.r	.	2.r	.	4r	.	4r	.
.	.	.	.	4f/	.	4a-/]	.	.	.	.	.	(4cc\	.	(4aa-\	.
4BB-/)	.	4B-/	.	8r	.	8r	.	.	.	.	.	4b-\)	.	4gg\)	.
.	.	.	.	8e-/	.	8g/	.	.	.	.	.	.	.	.	.
=66	=66	=66	=66	=66	=66	=66	=66	=66	=66	=66	=66	=66	=66	=66	=66
(2AA-/	.	2A-/	.	4e-/	.	[4f/	.	2.r	.	2.r	.	2a-\	.	(2ff\	.
.	.	.	.	4c/	.	4.f/]	.	.	.	.	.	.	.	.	.
4AAn/)	.	4An/	.	4c/	.	.	.	.	.	.	.	4an\	.	4ee-\)	.
.	.	.	.	.	.	8e-/	.	.	.	.	.	.	.	.	.
!	!	!	!	!	!	!LO:LB:g=original	!	!	!	!	!	!	!	!	!
=67	=67	=67	=67	=67	=67	=67	=67	=67	=67	=67	=67	=67	=67	=67	=67
4BB-/	.	4B-/	.	4c/	.	4e-/	.	2.r	.	2.r	.	(4cc\	.	(4ee-\	.
4BB-/	.	4B-/	.	(16B-/LL	.	(16d/LL	.	.	.	.	.	8b-\)	.	8dd\)	.
.	.	.	.	16d/)	.	16f/	.	.	.	.	.	.	.	.	.
.	.	.	.	(16c/	.	16e-/	.	.	.	.	.	8r	.	8r	.
.	.	.	.	16e-/JJ)	.	16g/JJ)	.	.	.	.	.	.	.	.	.
.	.	.	.	.	.	8qqg/	.	.	.	.	.	.	.	.	.
4BB-/	.	4B-/	.	8e-/L	.	4f/	.	.	.	.	.	4r	.	4r	.
.	.	.	.	8d/J	.	.	.	.	.	.	.	.	.	.	.
!	!	!LO:LB:g=original	!	!	!	!	!	!	!	!	!	!	!	!	!
=68	=68	=68	=68	=68	=68	=68	=68	=68	=68	=68	=68	=68	=68	=68	=68
.	.	.	.	.	.	8qqcc/	.	.	.	.	.	.	.	.	.
2E-\	.	2.B-/	.	4g/	.	4b-\	.	2.r	.	2.r	.	2.r	.	2.r	.
.	.	.	.	8.e-/L	.	8.g/L	.	.	.	.	.	.	.	.	.
.	.	.	.	16f/K	.	16a-/K	.	.	.	.	.	.	.	.	.
4D\	.	.	.	8.g/	.	8.b-/	.	.	.	.	.	.	.	.	.
.	.	.	.	16a-/Jk	.	16cc/Jk	.	.	.	.	.	.	.	.	.
!LO:LB:g=original	!	!	!	!LO:LB:g=original	!	!	!	!	!	!	!	!	!	!LO:LB:g=original	!
=69	=69	=69	=69	=69	=69	=69	=69	=69	=69	=69	=69	=69	=69	=69	=69
!	!LO:DY:b:t=for	!	!LO:DY:b:t=for	!	!	!	!	!	!LO:DY:b:t=po.	!	!	!	!	!	!
(4C/	f	2.B-/	f	4f/	.	4a-/	.	4r	p	4r	.	4r	.	4r	.
!	!	!	!	!	!LO:DY:b:t=for	!	!	!	!	!	!	!	!LO:DY:b:t=for	!	!LO:DY:b:t=for.
4BB-/	.	.	.	2f/	f	2dd\	fz	2E-/	.	2e-\	.	2f/	f	2dd\	f
4AA-/)	.	.	.	.	.	.	.	.	.	.	.	.	.	.	.
=70	=70	=70	=70	=70	=70	=70	=70	=70	=70	=70	=70	=70	=70	=70	=70
!LO:TX:t=P:problem=mixed beam	!	!	!	!	!	!LO:TUP:a	!	!	!	!	!	!	!	!	!
8.GG/L	.	8.B-/L	.	2e-/	.	(24ee-\LL	.	4E-/	.	4e-\	.	4g/	.	4ee-\	.
.	.	.	.	.	.	24dd\	.	.	.	.	.	.	.	.	.
.	.	.	.	.	.	24cc\	.	.	.	.	.	.	.	.	.
.	.	.	.	.	.	24b-\	.	.	.	.	.	.	.	.	.
.	.	.	.	.	.	24a-\	.	.	.	.	.	.	.	.	.
16A-\Jk	.	16c/Jk	.	.	.	.	.	.	.	.	.	.	.	.	.
.	.	.	.	.	.	24g\JJ)	.	.	.	.	.	.	.	.	.
4B-\	.	4B-/	.	.	.	4B-/	.	4E-/	.	4e-\	.	(4ee-\	.	(4gg\	.
!	!	!	!	!	!	!LO:TX:a:B:t=t	!	!	!	!	!	!	!	!	!
4BB-/	.	4B-/	.	4d/	.	4f/	.	4E-/	.	4e-\	.	4dd\)	.	4ff\)	.
!	!	!	!	!	!	!	!	!	!	!	!	!LO:LB:g=original	!	!	!
=71	=71	=71	=71	=71	=71	=71	=71	=71	=71	=71	=71	=71	=71	=71	=71
4E-\	.	2B-/	.	(4d/	.	(4f/	.	2E-/	.	2e-\	.	(4dd\	.	(4ff\	.
4EE-/	.	.	.	4e-/)	.	4e-/)	.	.	.	.	.	4ee-\)	.	4ee-\)	.
4r	.	4r	.	4r	.	4r	.	4r	.	4r	.	4r	.	(16ee-\LL	.
.	.	.	.	.	.	.	.	.	.	.	.	.	.	16dd\	.
.	.	.	.	.	.	.	.	.	.	.	.	.	.	16cc\	.
.	.	.	.	.	.	.	.	.	.	.	.	.	.	16dd\JJ)	.
=72	=72	=72	=72	=72	=72	=72	=72	=72	=72	=72	=72	=72	=72	=72	=72
2.r	.	2.r	.	2.r	.	4r	.	2.r	.	2.r	.	2.r	.	4cc\	.
.	.	.	.	.	.	4r	.	.	.	.	.	.	.	4r	.
.	.	.	.	.	.	(16g/LL	.	.	.	.	.	.	.	(16gg\LL	.
.	.	.	.	.	.	16f/	.	.	.	.	.	.	.	16ff\	.
.	.	.	.	.	.	16e-/	.	.	.	.	.	.	.	16ee-\	.
.	.	.	.	.	.	16g/JJ)	.	.	.	.	.	.	.	16ff\JJ)	.
=73	=73	=73	=73	=73	=73	=73	=73	=73	=73	=73	=73	=73	=73	=73	=73
2.r	.	2.r	.	2.r	.	4e-/	.	2.r	.	2.r	.	2.r	.	4ee-\	.
.	.	.	.	.	.	4r	.	.	.	.	.	.	.	4r	.
.	.	.	.	.	.	4r	.	.	.	.	.	.	.	(16bb-\LL	.
.	.	.	.	.	.	.	.	.	.	.	.	.	.	16aa-\	.
.	.	.	.	.	.	.	.	.	.	.	.	.	.	16gg\	.
.	.	.	.	.	.	.	.	.	.	.	.	.	.	16aa-\JJ)	.
=74	=74	=74	=74	=74	=74	=74	=74	=74	=74	=74	=74	=74	=74	=74	=74
2.r	.	2.r	.	2.r	.	2.r	.	2.r	.	2.r	.	2.r	.	4gg\	.
.	.	.	.	.	.	.	.	.	.	.	.	.	.	4r	.
.	.	.	.	.	.	.	.	.	.	.	.	.	.	8.gg\L	.
.	.	.	.	.	.	.	.	.	.	.	.	.	.	16aa-\Jk	.
=75	=75	=75	=75	=75	=75	=75	=75	=75	=75	=75	=75	=75	=75	=75	=75
!	!LO:DY:b:t=pia	!	!	!	!	!	!	!	!	!	!	!	!	!	!
8r	p	8r	.	8r	.	8r	.	2.r	.	2.r	.	2.r	.	4gg\	.
!LO:TX:b:i:t=Violoncelli	!	!	!LO:DY:b:t=po	!	!LO:DY:b:t=po	!	!LO:DY:b:t=pia	!	!	!	!	!	!	!	!
(8F'\L	.	8d'\L	p	8g'/L	p	(8bn'\L	p	.	.	.	.	.	.	.	.
8F'\	.	8d'\	.	8g'/	.	8b'\	.	.	.	.	.	.	.	(16gg\LL	.
.	.	.	.	.	.	.	.	.	.	.	.	.	.	16aan\	.
8F'\	.	8d'\	.	8g'/	.	8b'\	.	.	.	.	.	.	.	16bbn\	.
.	.	.	.	.	.	.	.	.	.	.	.	.	.	16ccc\JJ)	.
8F'\	.	8d'\	.	8g'/	.	8b'\	.	.	.	.	.	.	.	(16ddd\LL	.
.	.	.	.	.	.	.	.	.	.	.	.	.	.	16bb\)	.
8F'\J)	.	8d'\J	.	8g'/J	.	8b'\J)	.	.	.	.	.	.	.	16gg'\	.
.	.	.	.	.	.	.	.	.	.	.	.	.	.	16ff'\JJ	.
!	!	!	!	!	!	!	!	!	!	!	!	!	!	!LO:LB:g=original	!
=76	=76	=76	=76	=76	=76	=76	=76	=76	=76	=76	=76	=76	=76	=76	=76
.	.	.	.	.	.	.	.	.	.	.	.	.	.	8qff/	.
8r	.	8r	.	8r	.	8r	.	2.r	.	2.r	.	2.r	.	16ee-\LL	.
.	.	.	.	.	.	.	.	.	.	.	.	.	.	16dd\	.
(8E-'\L	.	8e-'\L	.	8g'/L	.	(8cc'\L	.	.	.	.	.	.	.	16ee-\	.
.	.	.	.	.	.	.	.	.	.	.	.	.	.	16ff\JJ	.
8E-'\	.	8e-'\	.	8g'/	.	8cc'\	.	.	.	.	.	.	.	4gg\	.
8E-'\	.	8e-'\	.	8g'/	.	8cc'\	.	.	.	.	.	.	.	.	.
8E-'\	.	8e-'\	.	8g'/	.	8cc'\	.	.	.	.	.	.	.	8r	.
8E-'\J)	.	8e-'\J	.	8g'/J	.	8cc'\J)	.	.	.	.	.	.	.	8gg\	.
!	!	!	!	!	!	!LO:LB:g=original	!	!	!	!	!	!	!	!	!
=77	=77	=77	=77	=77	=77	=77	=77	=77	=77	=77	=77	=77	=77	=77	=77
8r	.	8r	.	8r	.	8r	.	2.r	.	2.r	.	2.r	.	(4gg\	.
(8F'\L	.	8d'\L	.	8g'/L	.	(8bn'\L	.	.	.	.	.	.	.	.	.
8F'\	.	8d'\	.	8g'/	.	8b'\	.	.	.	.	.	.	.	16gg\LL	.
.	.	.	.	.	.	.	.	.	.	.	.	.	.	16aan\	.
8F'\	.	8d'\	.	8g'/	.	8b'\	.	.	.	.	.	.	.	16bbn\	.
.	.	.	.	.	.	.	.	.	.	.	.	.	.	16ccc\JJ)	.
8F'\	.	8d'\	.	8g'/	.	8b'\	.	.	.	.	.	.	.	(16ddd\LL	.
.	.	.	.	.	.	.	.	.	.	.	.	.	.	16bb\)	.
8F'\J)	.	8d'\J	.	8g'/J	.	8b'\J)	.	.	.	.	.	.	.	16gg'\	.
.	.	.	.	.	.	.	.	.	.	.	.	.	.	16ff'\JJ	.
=78	=78	=78	=78	=78	=78	=78	=78	=78	=78	=78	=78	=78	=78	=78	=78
.	.	.	.	.	.	.	.	.	.	.	.	.	.	8qff/	.
8r	.	8r	.	8r	.	8r	.	2.r	.	2.r	.	2.r	.	(16ee-\LL	.
.	.	.	.	.	.	.	.	.	.	.	.	.	.	16dd\	.
(8E-'\L	.	8e-'\L	.	8g'/L	.	(8cc'\L	.	.	.	.	.	.	.	16ee-\	.
.	.	.	.	.	.	.	.	.	.	.	.	.	.	16ff\JJ)	.
8E-'\	.	8e-'\	.	8g'/	.	8cc'\	.	.	.	.	.	.	.	4gg\	.
8E-'\	.	8e-'\	.	8g'/	.	8cc'\	.	.	.	.	.	.	.	.	.
8E-'\	.	8e-'\	.	8g'/	.	8cc'\	.	.	.	.	.	.	.	8r	.
8E-'\J)	.	8e-'\J	.	8g'/J	.	8cc'\J)	.	.	.	.	.	.	.	8gg\	.
!LO:LB:g=original	!	!LO:LB:g=original	!	!	!	!	!	!	!	!	!	!	!	!	!
=79	=79	=79	=79	=79	=79	=79	=79	=79	=79	=79	=79	=79	=79	=79	=79
!LO:TX:b:i:t=Baſso	!	!	!	!	!	!	!	!	!	!	!	!	!	!	!
4D\	.	4d\	.	4g/	.	4bn\	.	2.r	.	2.r	.	2.r	.	2.gg\	.
4r	.	4r	.	4r	.	4r	.	.	.	.	.	.	.	.	.
4r	.	4r	.	4r	.	4r	.	.	.	.	.	.	.	.	.
!	!	!	!	!LO:LB:g=original	!	!	!	!	!	!	!	!	!	!	!
=80	=80	=80	=80	=80	=80	=80	=80	=80	=80	=80	=80	=80	=80	=80	=80
2.r	.	2.r	.	2.r	.	2.r	.	2.r	.	2.r	.	2.r	.	2.gg\	.
=81	=81	=81	=81	=81	=81	=81	=81	=81	=81	=81	=81	=81	=81	=81	=81
4r	.	2.r	.	4r	.	4r	.	2.r	.	2.r	.	2.r	.	2.gg\	.
4G\	.	.	.	8r	.	8r	.	.	.	.	.	.	.	.	.
!	!	!	!	!LO:TX:b:i:t=dolce	!	!	!LO:DY:b:t=po.	!	!	!	!	!	!	!	!
.	.	.	.	(8bn\L	.	8dd`\L	p	.	.	.	.	.	.	.	.
4G\	.	.	.	8b\	.	(8dd\	.	.	.	.	.	.	.	.	.
.	.	.	.	8dd\J)	.	8ff\J)	.	.	.	.	.	.	.	.	.
=82	=82	=82	=82	=82	=82	=82	=82	=82	=82	=82	=82	=82	=82	=82	=82
4G\	.	2.r	.	(8dd\L	.	(8ff\L	.	2.r	.	2.r	.	2.r	.	2.gg\	.
.	.	.	.	8cc\J)	.	8ee-\J)	.	.	.	.	.	.	.	.	.
4G\	.	.	.	8r	.	8r	.	.	.	.	.	.	.	.	.
.	.	.	.	(8cc\L	.	(8gg\L	.	.	.	.	.	.	.	.	.
4G\	.	.	.	8ee-\	.	8gg\	.	.	.	.	.	.	.	.	.
.	.	.	.	8cc\J)	.	8ee-\J)	.	.	.	.	.	.	.	.	.
=83	=83	=83	=83	=83	=83	=83	=83	=83	=83	=83	=83	=83	=83	=83	=83
4G\	.	2.r	.	(8cc\L	.	(8ee-\L	.	2.r	.	2.r	.	2.r	.	4gg\	.
.	.	.	.	8bn\J)	.	8dd\J)	.	.	.	.	.	.	.	.	.
4r	.	.	.	4r	.	4r	.	.	.	.	.	.	.	8r	.
!	!	!	!	!	!	!	!	!	!	!	!	!	!	!LO:TX:b:i:t=dolce	!
.	.	.	.	.	.	.	.	.	.	.	.	.	.	(8gg\L	.
4r	.	.	.	4r	.	4r	.	.	.	.	.	.	.	8aa-\	.
.	.	.	.	.	.	.	.	.	.	.	.	.	.	8gg\J)	.
=84	=84	=84	=84	=84	=84	=84	=84	=84	=84	=84	=84	=84	=84	=84	=84
.	.	.	.	.	.	.	.	.	.	.	.	.	.	8qqgg/	.
2.r	.	2.r	.	2.r	.	2.r	.	2.r	.	2.r	.	2.r	.	(4ff#X'\	.
.	.	.	.	.	.	.	.	.	.	.	.	.	.	4ff#'\	.
.	.	.	.	.	.	.	.	.	.	.	.	.	.	4ff#'\)	.
!	!	!	!	!	!	!	!	!	!	!	!	!	!	!LO:LB:g=original	!
=85	=85	=85	=85	=85	=85	=85	=85	=85	=85	=85	=85	=85	=85	=85	=85
!	!LO:DY:b:t=po&colon;	!	!	!	!	!	!	!	!	!	!	!	!	!	!
8r	p	2.r	.	2.r	.	2.r	.	2.r	.	2.r	.	2.r	.	4gg\	.
!LO:TX:b:i:t=Violoncelli	!	!	!	!	!	!	!	!	!	!	!	!	!	!	!
8D\L	.	.	.	.	.	.	.	.	.	.	.	.	.	.	.
8D\	.	.	.	.	.	.	.	.	.	.	.	.	.	8r	.
8D\	.	.	.	.	.	.	.	.	.	.	.	.	.	8ffn\L	.
8D\	.	.	.	.	.	.	.	.	.	.	.	.	.	8gg\	.
8D\J	.	.	.	.	.	.	.	.	.	.	.	.	.	8ff\J	.
=86	=86	=86	=86	=86	=86	=86	=86	=86	=86	=86	=86	=86	=86	=86	=86
.	.	.	.	.	.	.	.	.	.	.	.	.	.	8qqff/	.
8r	.	2.r	.	2.r	.	2.r	.	2.r	.	2.r	.	2.r	.	(4een'\	.
8G\L	.	.	.	.	.	.	.	.	.	.	.	.	.	.	.
8G\	.	.	.	.	.	.	.	.	.	.	.	.	.	4ee'\	.
8G\	.	.	.	.	.	.	.	.	.	.	.	.	.	.	.
8G\	.	.	.	.	.	.	.	.	.	.	.	.	.	4ee'\)	.
8G\J	.	.	.	.	.	.	.	.	.	.	.	.	.	.	.
=87	=87	=87	=87	=87	=87	=87	=87	=87	=87	=87	=87	=87	=87	=87	=87
8r	.	2.r	.	2.r	.	2.r	.	2.r	.	2.r	.	2.r	.	4ff\	.
8C\L	.	.	.	.	.	.	.	.	.	.	.	.	.	.	.
8C\	.	.	.	.	.	.	.	.	.	.	.	.	.	8r	.
8C\	.	.	.	.	.	.	.	.	.	.	.	.	.	(8ee-X\L	.
8C\	.	.	.	.	.	.	.	.	.	.	.	.	.	8ff\	.
8C\J	.	.	.	.	.	.	.	.	.	.	.	.	.	8ee-\J)	.
=88	=88	=88	=88	=88	=88	=88	=88	=88	=88	=88	=88	=88	=88	=88	=88
.	.	.	.	.	.	.	.	.	.	.	.	.	.	8qqee-/	.
8r	.	2.r	.	2.r	.	2.r	.	2.r	.	2.r	.	2.r	.	4dd'\	.
8F\L	.	.	.	.	.	.	.	.	.	.	.	.	.	.	.
8F\	.	.	.	.	.	.	.	.	.	.	.	.	.	4dd'\	.
8F\	.	.	.	.	.	.	.	.	.	.	.	.	.	.	.
8F\	.	.	.	.	.	.	.	.	.	.	.	.	.	4dd'\	.
8F\J	.	.	.	.	.	.	.	.	.	.	.	.	.	.	.
!LO:LB:g=original	!	!	!	!	!	!	!	!	!	!	!	!	!	!	!
=89	=89	=89	=89	=89	=89	=89	=89	=89	=89	=89	=89	=89	=89	=89	=89
8r	.	2.r	.	2.r	.	2.r	.	2.r	.	2.r	.	2.r	.	4ee-\	.
8BB-/L	.	.	.	.	.	.	.	.	.	.	.	.	.	.	.
8BB-/	.	.	.	.	.	.	.	.	.	.	.	.	.	8r	.
8BB-/	.	.	.	.	.	.	.	.	.	.	.	.	.	(8dd\L	.
8BB-/	.	.	.	.	.	.	.	.	.	.	.	.	.	8ee-\	.
8BB-/J	.	.	.	.	.	.	.	.	.	.	.	.	.	8dd-X\J)	.
=90	=90	=90	=90	=90	=90	=90	=90	=90	=90	=90	=90	=90	=90	=90	=90
!	!	!	!	!	!	!	!	!	!	!	!	!	!	!	!LO:DY:b:t=p&colon;
4AA-X/	.	2.r	.	2.r	.	2.r	.	2.r	.	2.r	.	2.r	.	(4cc'\	p
4r	.	.	.	.	.	.	.	.	.	.	.	.	.	4cc'\	.
4r	.	.	.	.	.	.	.	.	.	.	.	.	.	4cc'\)	.
!	!	!	!	!	!	!	!	!	!	!LO:LB:g=original	!	!	!	!	!
=91	=91	=91	=91	=91	=91	=91	=91	=91	=91	=91	=91	=91	=91	=91	=91
!	!	!	!	!	!	!	!	!	!	!	!	!	!	!LO:TX:b:i:t=cresc.	!
!	!	!	!	!	!	!	!	!	!LO:DY:b:t=po.	!	!LO:DY:b:t=po.	!	!	!LO:TX:a:B:t=t	!
2.r	.	2.r	.	2.r	.	2.r	.	2.E-/	p	2.e-\	p	2.r	.	(4ddn'\	.
.	.	.	.	.	.	.	.	.	.	.	.	.	.	4dd'\	.
.	.	.	.	.	.	.	.	.	.	.	.	.	.	4dd'\)	.
=92	=92	=92	=92	=92	=92	=92	=92	=92	=92	=92	=92	=92	=92	=92	=92
!LO:TX:b:i:t=Baſsi	!LO:DY:b:t=po&colon;	!	!	!	!LO:DY:b:t=po..	!	!LO:DY:b:t=po&colon;	!	!	!	!	!	!LO:DY:b:t=po&colon;	!	!
4r	p	4B-/	.	4g/	p	4b-/	p	2.r	.	2.r	.	2.g/	p	2.ee-\	.
4E-\	.	8.G/L	.	8.e-/L	.	8.g/L	.	.	.	.	.	.	.	.	.
.	.	16A-/Jk	.	16f/K	.	16a-/K	.	.	.	.	.	.	.	.	.
4E-\	.	8.B-/L	.	8.g/	.	8.b-/	.	.	.	.	.	.	.	.	.
.	.	16c/Jk	.	16a-/Jk	.	16cc/Jk	.	.	.	.	.	.	.	.	.
=93	=93	=93	=93	=93	=93	=93	=93	=93	=93	=93	=93	=93	=93	=93	=93
2.E-\	.	4A-/	.	4f/	.	4a-/	.	2.r	.	2.r	.	2.g/	.	2.ee-\	.
.	.	4A-/	.	4f/	.	4a-/	.	.	.	.	.	.	.	.	.
.	.	8r	.	8r	.	8r	.	.	.	.	.	.	.	.	.
.	.	8G/	.	8e-/	.	8g/	.	.	.	.	.	.	.	.	.
!	!	!	!	!	!	!LO:LB:g=original	!	!LO:LB:g=original	!	!	!	!	!	!LO:LB:g=original	!
=94	=94	=94	=94	=94	=94	=94	=94	=94	=94	=94	=94	=94	=94	=94	=94
2.E-\	.	4F/	.	4e-/	.	4f/	.	2.E-/	.	2.e-\	.	2.g/	.	2.ee-\	.
.	.	4F/	.	2c/	.	4.f/	.	.	.	.	.	.	.	.	.
.	.	8r	.	.	.	.	.	.	.	.	.	.	.	.	.
.	.	8E-/	.	.	.	8e-/	.	.	.	.	.	.	.	.	.
=95	=95	=95	=95	=95	=95	=95	=95	=95	=95	=95	=95	=95	=95	=95	=95
4BB-/	.	4E-/	.	4c/	.	4e-/	.	2.E-/	.	2.e-\	.	(4g/	.	(4ee-\	.
4BB-/	.	(16D/LL	.	16B-/LL	.	(16d/LL	.	.	.	.	.	8f/)	.	8dd\)	.
.	.	16F/)	.	16d/	.	16f/	.	.	.	.	.	.	.	.	.
.	.	(16D/	.	16c/	.	16e-/	.	.	.	.	.	8r	.	8r	.
.	.	16G/JJ)	.	16e-/JJ	.	16g/JJ)	.	.	.	.	.	.	.	.	.
4BB-/	.	8.F/L	.	8.d/L	.	8.f/L	.	.	.	.	.	4r	.	4r	.
.	.	16B-/Jk	.	16g/Jk	.	16b-/Jk	.	.	.	.	.	.	.	.	.
=96	=96	=96	=96	=96	=96	=96	=96	=96	=96	=96	=96	=96	=96	=96	=96
2.E-\	.	4B-/	.	4g/	.	4b-/	.	2.r	.	2.r	.	4gg\	.	4bb-\	.
!	!	!	!	!LO:LB:g=original	!	!	!	!	!	!	!	!	!	!	!
.	.	8.G/L	.	8.e-/L	.	(8.g/L	.	.	.	.	.	8.ee-\L	.	8.gg\L	.
.	.	16A-/Jk	.	16f/K	.	16a-/K)	.	.	.	.	.	16ff\K	.	16aa-\K	.
.	.	8.B-/L	.	8.g/	.	8.b-/	.	.	.	.	.	8.gg\	.	8.bb-\	.
.	.	16c/Jk	.	16a-/Jk	.	16cc/Jk	.	.	.	.	.	16aa-\Jk	.	16ccc\Jk	.
=97	=97	=97	=97	=97	=97	=97	=97	=97	=97	=97	=97	=97	=97	=97	=97
2.E-\	.	4c/	.	4f/	.	4a-/	.	4r	.	4r	.	4ff\	.	(4aa-'\	.
.	.	4c/	.	4f/	.	4a-/	.	2E-/	.	2e-\	.	4ff\	.	4aa-'\)	.
.	.	8r	.	8r	.	8r	.	.	.	.	.	8r	.	8r	.
.	.	8B-/	.	8e-/	.	8g/	.	.	.	.	.	8b-/	.	8gg\	.
!	!	!LO:LB:g=original	!	!	!	!	!	!	!	!	!	!LO:LB:g=original	!	!	!
=98	=98	=98	=98	=98	=98	=98	=98	=98	=98	=98	=98	=98	=98	=98	=98
.	.	.	.	.	.	.	.	.	.	.	.	8qqb-/	.	.	.
4A-\	.	4c/	.	8e-/L	.	(16g/LL	.	4E-/	.	4e-\	.	4a-/	.	4ff'\	.
.	.	.	.	.	.	16f/	.	.	.	.	.	.	.	.	.
.	.	.	.	16c/L	.	16a-/	.	.	.	.	.	.	.	.	.
.	.	.	.	16A-/JJ	.	16f/JJ)	.	.	.	.	.	.	.	.	.
4B-\	.	4B-/	.	4G/	.	4e-/	.	4r	.	4r	.	4g/	.	4ee-'\	.
4BB-/	.	4B-/	.	4A-/	.	4d/	.	4r	.	4r	.	4f/	.	4dd'\	.
=99	=99	=99	=99	=99	=99	=99	=99	=99	=99	=99	=99	=99	=99	=99	=99
!	!	!	!	!	!	!LO:TX:t=P:problem=mixed beam	!LO:DY:b:t=po.	!	!	!	!	!	!	!	!
4E-\	.	4B-/	.	4G/	.	8ee-/L	p	2.E-/	.	2.e-\	.	4g/	.	4ee-\	.
.	.	.	.	.	.	8bb-'\	.	.	.	.	.	.	.	.	.
!LO:TX:b:i:t=Violoncelli	!	!	!	!	!	!	!	!	!	!	!	!	!	!	!
8r	.	4r	.	8r	.	8aa-'\	.	.	.	.	.	4r	.	4r	.
8B-'\L	.	.	.	16e-/LL	.	8gg'\	.	.	.	.	.	.	.	.	.
.	.	.	.	16b-/JJ	.	.	.	.	.	.	.	.	.	.	.
8A-'\	.	4r	.	16f/LL	.	8ff'\	.	.	.	.	.	4r	.	4r	.
.	.	.	.	16b-/	.	.	.	.	.	.	.	.	.	.	.
8G'\J	.	.	.	16g/	.	8ee-'\J	.	.	.	.	.	.	.	.	.
.	.	.	.	16b-/JJ	.	.	.	.	.	.	.	.	.	.	.
=100	=100	=100	=100	=100	=100	=100	=100	=100	=100	=100	=100	=100	=100	=100	=100
8F'\L	.	2.B-/	.	16a-/LL	.	8dd'\L	.	4E-/	.	4e-\	.	4r	.	4r	.
.	.	.	.	16b-/	.	.	.	.	.	.	.	.	.	.	.
8E-'\	.	.	.	16g/	.	8ee-'\	.	.	.	.	.	.	.	.	.
.	.	.	.	16b-/JJ	.	.	.	.	.	.	.	.	.	.	.
8D'\	.	.	.	16f/LL	.	8ff'\	.	4r	.	4r	.	4r	.	4r	.
.	.	.	.	16b-/	.	.	.	.	.	.	.	.	.	.	.
8E-'\	.	.	.	16e-/	.	8gg'\	.	.	.	.	.	.	.	.	.
.	.	.	.	16b-/JJ	.	.	.	.	.	.	.	.	.	.	.
!	!	!	!	!LO:TX:t=P:problem=mixed beam	!	!	!	!	!	!	!	!	!LO:DY:b:t=po.	!	!LO:DY:b:t=po.
8F'\	.	.	.	16d/LL	.	8aa-'\	.	4r	.	4r	.	(4f/	p	(4dd\	p
.	.	.	.	16b-\	.	.	.	.	.	.	.	.	.	.	.
8BB-'\J	.	.	.	16d/	.	8ff'\J	.	.	.	.	.	.	.	.	.
.	.	.	.	16b-\JJ	.	.	.	.	.	.	.	.	.	.	.
=101	=101	=101	=101	=101	=101	=101	=101	=101	=101	=101	=101	=101	=101	=101	=101
4E-\	.	4B-/	.	4e-/	.	8gg'\L	.	2.E-/	.	2.e-\	.	4g/)	.	4ee-\)	.
.	.	.	.	.	.	8bb-'\	.	.	.	.	.	.	.	.	.
8r	.	4r	.	8r	.	8aa-'\	.	.	.	.	.	4r	.	4r	.
8B-'\L	.	.	.	16e-/LL	.	8gg'\	.	.	.	.	.	.	.	.	.
.	.	.	.	16b-/JJ	.	.	.	.	.	.	.	.	.	.	.
8A-'\	.	4r	.	16f/LL	.	8ff'\	.	.	.	.	.	4r	.	4r	.
.	.	.	.	16b-/	.	.	.	.	.	.	.	.	.	.	.
8G'\J	.	.	.	16g/	.	8ee-'\J	.	.	.	.	.	.	.	.	.
.	.	.	.	16b-/JJ	.	.	.	.	.	.	.	.	.	.	.
!LO:LB:g=original	!	!	!	!	!	!	!	!	!	!	!	!	!	!	!
=102	=102	=102	=102	=102	=102	=102	=102	=102	=102	=102	=102	=102	=102	=102	=102
8F'\L	.	2.B-/	.	16a-/LL	.	8dd'\L	.	4E-/	.	4e-\	.	4r	.	4r	.
.	.	.	.	16b-/	.	.	.	.	.	.	.	.	.	.	.
8E-'\	.	.	.	16g/	.	8ee-'\	.	.	.	.	.	.	.	.	.
.	.	.	.	16b-/JJ	.	.	.	.	.	.	.	.	.	.	.
8D'\	.	.	.	16f/LL	.	8ff'\	.	4r	.	4r	.	4r	.	4r	.
.	.	.	.	16b-/	.	.	.	.	.	.	.	.	.	.	.
8E-'\	.	.	.	16e-/	.	8gg'\	.	.	.	.	.	.	.	.	.
.	.	.	.	16b-/JJ	.	.	.	.	.	.	.	.	.	.	.
!	!	!	!	!LO:TX:t=P:problem=mixed beam	!	!	!	!	!	!	!	!	!	!	!
8F'\	.	.	.	16d/LL	.	8aa-'\	.	4r	.	4r	.	(4f/	.	(4dd\	.
.	.	.	.	16b-\	.	.	.	.	.	.	.	.	.	.	.
8BB-'\J	.	.	.	16d/	.	8ff'\J	.	.	.	.	.	.	.	.	.
.	.	.	.	16b-\JJ	.	.	.	.	.	.	.	.	.	.	.
!	!	!	!	!LO:LB:g=original	!	!LO:LB:g=original	!	!	!	!	!	!	!	!	!
=103	=103	=103	=103	=103	=103	=103	=103	=103	=103	=103	=103	=103	=103	=103	=103
!LO:TX:b:i:t=Baſsi	!	!	!	!LO:TX:t=P:problem=mixed beam	!	!	!LO:DY:b:t=for.	!	!	!	!	!	!	!	!
8.E-\L	.	8.e-\L	.	(8.e-/L	.	(8.gg\L	f	4r	.	4r	.	4g/)	.	4ee-\)	.
16F\Jk	.	16f\Jk	.	16dd\Jk)	.	16dd\Jk)	.	.	.	.	.	.	.	.	.
8.G\L	.	8.g\L	.	(8.ee-\L	.	(8.ee-\L	.	4E-/	.	4e-\	.	4r	.	4r	.
16D\Jk	.	16d\Jk	.	16bn\Jk)	.	16bn\Jk)	.	.	.	.	.	.	.	.	.
!	!LO:DY:b:t=for.	!	!	!	!	!	!	!	!	!	!	!	!	!	!
8.E-\L	f	8.e-\L	.	(8.cc\L	.	(8.cc/L	.	4E-/	.	4e-\	.	4r	.	4r	.
16BB-\Jk	.	16B-\Jk	.	16g\Jk)	.	16g/Jk)	.	.	.	.	.	.	.	.	.
!	!	!	!	!	!	!	!	!	!	!	!	!	!	!LO:LB:g=original	!
=104	=104	=104	=104	=104	=104	=104	=104	=104	=104	=104	=104	=104	=104	=104	=104
8.C/L	.	8.c/L	.	(8.a-/L	.	(8.a-X/L	.	4E-/	.	4e-\	.	4r	.	4r	.
16AA-/Jk	.	16A-/Jk	.	16f/Jk)	.	16f/Jk)	.	.	.	.	.	.	.	.	.
!	!	!	!	!	!	!	!	!	!	!	!	!	!LO:DY:b:t=for	!	!LO:DY:b:t=for
4BB-/	.	4B-/	.	4b-\	.	(4b-/	.	4r	.	4r	.	4b-\	f	4b-'\	f
4BB-/	.	4B-/	.	4B-/	.	4B-/)	.	4r	.	4r	.	4b-\	.	4b-'\	.
=105	=105	=105	=105	=105	=105	=105	=105	=105	=105	=105	=105	=105	=105	=105	=105
4EE-/	.	4B-/	.	4e-/	.	4e-/	.	2.ryy	.	2.ryy	.	4e-/	.	4e-/	.
4r	.	4r	.	4r	.	4r	.	.	.	.	.	4r	.	4r	.
4r	.	4r	.	4r	.	4r	.	.	.	.	.	4r	.	4r	.
==	==	==	==	==	==	==	==	==	==	==	==	==	==	==	==
*-	*-	*-	*-	*-	*-	*-	*-	*-	*-	*-	*-	*-	*-	*-	*-
!!!system-decoration: [(s1,s2)][(s3,s4)][([(s5,s6)]s7,s8)]
!!!ENC: Tomasz Grochalski
!!!END: 2020-07-18
!!!ENC: Urszula Świątek
!!!END: 2022-02-25
!!!YEC: Copyright 2022 Narodowy Instytut Fryderyka Chopina (https://polishscores.org)
!!!YEM: Licence CC BY 4.0 (https://creativecommons.org/licenses/by/4.0)
